X:1
T:Wreck of the Old 97
M:4/4
L:1/8
K:C
 EF| G/2G/2 G2 AG-E DC| F F2 FA cB A| G2 c2 dd c2| B4 z2 GG| c2 cdc-G EC|\
 F2 FF Ac BA| GG GE F2 ED| C6|
